X: 36
T: Song for Returned Pawnee Soldiers
N: Derived from pawnee36.krn
O: Oklahoma, U.S.A.
N: from Pawnee Music by Frances Densmore, 1926
Z: transcribed to **kern format by David Huron, August 2000
C: Skidi and Chaui Bands, 1919
L: 1/16
M: 2/4
Q: 1/4=88
K: F clef=bass
%%linebreak <none>
F [I:setbarnb 1]| 
F2 C CF4 | 
C4A,3 F[M:3/4] | 
F2 C CC4A,3 F,[M:2/4] | 
F,4F,3 B,[M:3/4] | 
B,2 G, G,B,4G,3 F,[M:2/4] | 
F,2< F,2 F,2 F,2 | 
F,7 :|]  



